X: 64
T:Dawns y Glocsen
T:Clog Dance
M:6/8
L:1/8
Q:130
C:Trad
S:Blodau'r Grug Collection Vol. 2
A:Wales
Z:brian_martin12345@yahoo.com
K:D
A|d2dd2B|A2FD2E|FEDA2G|FEDE2A|d2d dcB|A2FD2E|FGF EDE|"Fine"F2ED2:||
A|d2dd2d|c2de3|f2dd2B|c2de3|f2df2d|c2de2f|Bcde2d|"D.C."c2BA2:||

